X: 8
T: Man Of Aran
R: reel
M: 4/4
L: 1/8
K: Amin
|:EAed cA A2|d3c BG G2|EAed cA A2|BdcB cA A2|
eAdA cA A2|d3c BG G2|(3ABc Bd cedf|[1e3d cAAG:|[2e3d cAAB||
|Gcec Gcec|BcdB eBdB|cGEc EGcG|BdcB cAAB|
cdec Gcec|BcdB eBdB|(3ABc Bd cedf|[1e3d cAAB:|[2e3d cAAG|]
|ce e2 ce e2|Bd d2 Bd d2|ce e2 ce e2|B2dB cA A2|
cege cege|Bdfd Bdfd|cedf eA A2| e3d edcB:||


Tune 973	Setting 27137

